svg/u1f4e1.svg

<svg viewBox="0 0 128 128" xmlns="http://www.w3.org/2000/svg">
  <defs/>
  <path d="M19.93,116.6 C19.93,110.44 36.55,101.7 57.06,101.7 C77.57,101.7 94.19,110.44 94.19,116.6 C94.19,116.6 87.48,124 57.06,124 C26.64,124 19.93,116.6 19.93,116.6 Z" fill="#94D1E0"/>
  <path d="M87.08,108.65 C84.31,107.26 81.46,106.04 78.53,105.05 L76.25,89.14 L61.1,89.14 L60.06,102.58 C55.96,104.42 51.25,109.81 51.83,113.66 C52.67,119.26 62.31,120.26 77.56,118.62 C81.42,118.2 89.7,115.77 92.91,113.42 C92.91,113.43 90.44,110.33 87.08,108.65 Z" fill="#82AEC0"/>
  <path d="M73.22,93.34 L63.7,91.1 L62.91,99.49 L50.64,100.6 L51.83,113.66 L74.98,108.22 Z" fill="#2F7889"/>
  <path d="M117.23,91.34 C110.71,99.27 62.62,97.38 40.18,80.58 C17.74,63.78 3.61,18.58 10.71,9.1 L117.23,91.34 Z" fill="#82AEC0"/>
  <path d="M117.43,91.18 C118.25,90.08 118.49,89.16 118.24,87.83 L92.92,84.83 C92.92,84.83 74.34,89.62 48.95,81.84 L49.36,86.12 C73.6,98.05 111.19,99.52 117.43,91.18 Z" fill="#2F7889"/>
  <path d="M79.685,29.463 C109.553,51.821 127.245,78.656 119.202,89.401 C111.159,100.145 80.427,90.731 50.559,68.373 C20.691,46.015 2.998,19.18 11.041,8.435 C19.084,-2.309 49.817,7.105 79.685,29.463 Z" fill="#FAFAFA"/>
  <path d="M92.91,82.97 C102.17,73.71 86.44,44.52 59.36,16.26 C36.96,3.87 17.24,0.15 11.04,8.44 C3,19.19 20.69,46.02 50.55,68.38 C60.09,75.52 71.11,82 80.06,86.26 C85.72,87.33 90.19,85.69 92.91,82.97 Z" fill="#E0E0E0"/>
  <path d="M57.06,108.35 L40.8,108.9 L40.8,71.76 C45.13,69.96 50.64,71.39 51.83,79.31 C52.48,83.63 57.06,108.35 57.06,108.35 Z" fill="#2F7889"/>
  <path d="M79.68,29.47 C49.81,7.11 19.08,-2.3 11.04,8.44 C3,19.18 20.69,46.02 50.56,68.37 C80.43,90.73 111.16,100.14 119.2,89.4 C127.24,78.66 109.55,51.83 79.68,29.47 Z M117,86.73 C110.08,95.98 81.46,86.25 53.08,65 C24.7,43.75 7.3,19.04 14.22,9.79 C21.14,0.54 49.76,10.27 78.14,31.52 C106.52,52.77 123.92,77.48 117,86.73 Z" fill="#82AEC0"/>
  <path d="M51.83,113.66 L34.9,109.08 L37.63,77.79 C37.94,73.59 39.71,71.58 42.14,71.56 C45.17,71.54 48.08,73.34 48.56,78.19 C48.99,82.54 51.83,113.66 51.83,113.66 Z" fill="#94D1E0"/>
  <path d="M44.59,78.24 A2.45 3.27 0 1 1 39.69,78.24 A2.45 3.27 0 1 1 44.59,78.24 Z" fill="#2F7889" opacity="0.7"/>
  <path d="M92.644,20.815 L73.374,46.735 Q72.926,47.337 72.402,47.414 Q71.877,47.491 71.275,47.044 Q70.071,46.149 70.966,44.945 L90.236,19.025 Q90.684,18.423 91.208,18.346 Q91.733,18.269 92.335,18.716 Q93.539,19.611 92.644,20.815 Z" fill="#2F7889"/>
  <path d="M29.795,43.009 L89.725,17.609 Q91.106,17.024 91.691,18.405 Q91.984,19.095 91.785,19.587 Q91.586,20.078 90.895,20.371 L30.965,45.771 Q29.584,46.356 28.999,44.975 Q28.706,44.285 28.905,43.793 Q29.104,43.302 29.795,43.009 Z" fill="#82AEC0"/>
  <path d="M94.753,21.027 L88.423,85.367 Q88.276,86.86 86.783,86.713 Q85.29,86.566 85.437,85.073 L91.767,20.733 Q91.841,19.987 92.251,19.65 Q92.66,19.314 93.407,19.387 Q94.9,19.534 94.753,21.027 Z" fill="#82AEC0"/>
  <path d="M91.57,20.05 C88.65,18.01 89.05,16.32 89.69,15.5 L95.54,8.04 C96.18,7.22 97.8,6.6 100.28,8.62 C102.35,10.3 102.41,12.11 101.77,12.93 L95.92,20.39 C95.28,21.21 93.54,21.43 91.57,20.05 Z" fill="#82AEC0"/>
  <path d="M91.64,17.34 C90.84,16.74 91.85,14.26 93.74,12.05 C95.63,9.84 97.08,8.48 97.87,9.07 C98.67,9.67 97.99,11.72 95.95,14.21 C93.92,16.71 91.97,17.59 91.64,17.34 Z" fill="#94D1E0"/>
  <path d="M14.22,9.79 C14.45,9.49 16.42,7.44 15.22,6.58 C13.92,5.66 12.05,6.75 10.42,9.39 C7.13,14.69 10.79,23.15 11.57,24.95 C17.04,37.59 31.26,53.91 50.57,68.37 C58.67,74.43 66.82,79.53 74.58,83.55 C78,85.32 80.73,87.06 84.33,86.66 C86.41,86.43 86.91,85.06 85.15,84.18 C75.71,79.44 63.42,72.74 53.08,65 C24.7,43.76 7.3,19.04 14.22,9.79 Z" fill="#94D1E0"/>
</svg>

<svg viewBox="0 0 128 128" xmlns="http://www.w3.org/2000/svg">
  <g>
    <path d="M19.93,116.6c0-6.16,16.62-14.9,37.13-14.9s37.13,8.74,37.13,14.9c0,0-6.71,7.4-37.13,7.4 S19.93,116.6,19.93,116.6z" fill="#94D1E0"/>
    <path d="M87.08,108.65c-2.77-1.39-5.62-2.61-8.55-3.6l-2.28-15.91H61.1l-1.04,13.44 c-4.1,1.84-8.81,7.23-8.23,11.08c0.84,5.6,10.48,6.6,25.73,4.96c3.86-0.42,12.14-2.85,15.35-5.2 C92.91,113.43,90.44,110.33,87.08,108.65z" fill="#82AEC0"/>
    <polygon points="73.22,93.34 63.7,91.1 62.91,99.49 50.64,100.6 51.83,113.66 74.98,108.22 " fill="#2F7889"/>
    <path d="M117.23,91.34c-6.52,7.93-54.61,6.04-77.05-10.76S3.61,18.58,10.71,9.1L117.23,91.34z" fill="#82AEC0"/>
    <path d="M117.43,91.18c0.82-1.1,1.06-2.02,0.81-3.35l-25.32-3c0,0-18.58,4.79-43.97-2.99l0.41,4.28 C73.6,98.05,111.19,99.52,117.43,91.18z" fill="#2F7889"/>
    <ellipse cx="65.12" cy="48.92" rx="24.3" ry="67.55" fill="#FAFAFA" transform="matrix(0.5993 -0.8006 0.8006 0.5993 -13.0699 71.7353)"/>
    <path d="M92.91,82.97c9.26-9.26-6.47-38.45-33.55-66.71C36.96,3.87,17.24,0.15,11.04,8.44 C3,19.19,20.69,46.02,50.55,68.38c9.54,7.14,20.56,13.62,29.51,17.88C85.72,87.33,90.19,85.69,92.91,82.97z" fill="#E0E0E0"/>
    <path d="M57.06,108.35l-16.26,0.55V71.76c4.33-1.8,9.84-0.37,11.03,7.55 C52.48,83.63,57.06,108.35,57.06,108.35z" fill="#2F7889"/>
    <path d="M79.68,29.47C49.81,7.11,19.08-2.3,11.04,8.44s9.65,37.58,39.52,59.93 c29.87,22.36,60.6,31.77,68.64,21.03C127.24,78.66,109.55,51.83,79.68,29.47z M117,86.73c-6.92,9.25-35.54-0.48-63.92-21.73 S7.3,19.04,14.22,9.79c6.92-9.25,35.54,0.48,63.92,21.73C106.52,52.77,123.92,77.48,117,86.73z" fill="#82AEC0"/>
    <path d="M51.83,113.66l-16.93-4.58l2.73-31.29c0.31-4.2,2.08-6.21,4.51-6.23c3.03-0.02,5.94,1.78,6.42,6.63 C48.99,82.54,51.83,113.66,51.83,113.66z" fill="#94D1E0"/>
    <ellipse cx="42.14" cy="78.24" rx="2.45" ry="3.27" opacity="0.7" fill="#2F7889"/>
    <line fill="none" stroke="#2F7889" stroke-width="3" stroke-linecap="round" stroke-miterlimit="10" x1="91.44" x2="72.17" y1="19.92" y2="45.84"/>
    <line fill="none" stroke="#82AEC0" stroke-width="3" stroke-linecap="round" stroke-miterlimit="10" x1="30.38" x2="90.31" y1="44.39" y2="18.99"/>
    <line fill="none" stroke="#82AEC0" stroke-width="3" stroke-linecap="round" stroke-miterlimit="10" x1="93.26" x2="86.93" y1="20.88" y2="85.22"/>
    <path d="M91.57,20.05c-2.92-2.04-2.52-3.73-1.88-4.55l5.85-7.46c0.64-0.82,2.26-1.44,4.74,0.58 c2.07,1.68,2.13,3.49,1.49,4.31l-5.85,7.46C95.28,21.21,93.54,21.43,91.57,20.05z" fill="#82AEC0"/>
    <path d="M91.64,17.34c-0.8-0.6,0.21-3.08,2.1-5.29s3.34-3.57,4.13-2.98c0.8,0.6,0.12,2.65-1.92,5.14 C93.92,16.71,91.97,17.59,91.64,17.34z" fill="#94D1E0"/>
    <path d="M14.22,9.79c0.23-0.3,2.2-2.35,1-3.21c-1.3-0.92-3.17,0.17-4.8,2.81 c-3.29,5.3,0.37,13.76,1.15,15.56c5.47,12.64,19.69,28.96,39,43.42c8.1,6.06,16.25,11.16,24.01,15.18 c3.42,1.77,6.15,3.51,9.75,3.11c2.08-0.23,2.58-1.6,0.82-2.48C75.71,79.44,63.42,72.74,53.08,65C24.7,43.76,7.3,19.04,14.22,9.79z" fill="#94D1E0"/>
  </g>
</svg>
